X:3871
T:Macdonald's reel
O:england
M:2/4
L:1/8
K:C
E | A3 c | BA Bc | Ac-cd | e2 a2 |\
A3 c | BA Bc | AF ED | A3 :|
|:f | ec BA | BA Bf | ec BA | c3 f | \
ec BA | BG Bd | AF ED | A3 :|


